!!!COM: Palestrina, Giovanni Perluigi da
!!!OPR: Missa Lauda Sion
!!!OMD: Agnus II
!!!OTL: coda
**kern	**kern	**kern	**kern	**kern
*Ibass	*Itenor	*Itenor	*Icalto	*Icant
!Bassus	!Tenor 2	!Tenor 1	!Altus	!Cantus
*clefF4	*clefGv2	*clefGv2	*clefG2	*clefG2
*k[]	*k[]	*k[]	*k[]	*k[]
*G:mix	*G:mix	*G:mix	*G:mix	*G:mix
*M4/2	*M4/2	*M4/2	*M4/2	*M4/2
=36	=36	=36	=36	=36
0GG	2.d	0G	1B	2r
.	.	.	.	4g
.	4c	.	.	4a
.	4B	.	2.d	4b
.	4A	.	.	4cc
.	2B	.	.	[2dd
.	.	.	4e	.
=37	=37	=37	=37	=37
0D	1A	0F	4f	2dd]
.	.	.	4g	.
.	.	.	2a	4d
.	.	.	.	4e
.	2r	.	2d	4f
.	.	.	.	4g
.	[2F	.	[2f	[2a
=38	=38	=38	=38	=38
0F	4F]	0G	2f]	2a]
.	4G	.	.	.
.	4A	.	2c	4f
.	4B	.	.	4g
.	2c	.	1f	4a
.	.	.	.	4b
.	2A	.	.	[2cc
=39	=39	=39	=39	=39
0C	4G	0c	2e	2cc]
.	4F	.	.	.
.	4E	.	1g	4c
.	4D	.	.	4d
.	2C	.	.	4e
.	.	.	.	4f
.	2c	.	[2e	[2g
=40	=40	=40	=40	=40
0E	1B	0G	2e]	2g]
.	.	.	2.g	4e
.	.	.	.	4f
.	1B	.	.	4g
.	.	.	4f	4a
.	.	.	2e	2b
=41	=41	=41	=41	=41
0G	2r	0B	4d	4g
.	.	.	4c	4a
.	4G	.	4B	4b
.	4A	.	4A	4cc
.	4B	.	2G	2dd
.	4c	.	.	.
.	[2d	.	[2g	2g
=42	=42	=42	=42	=42
0D	4d]	0A	2g]	0a
.	8c	.	.	.
.	8B	.	.	.
.	2A	.	4f	.
.	.	.	4e	.
.	1d	.	1f#	.
=43	=43	=43	=43	=43
[0GG	[0d	[0G	[0g	[0b
=44	=44	=44	=44	=44
0GG]	0d]	0G]	0g]	0b]
==	==	==	==	==
*-	*-	*-	*-	*-
!!!CDT: 1525/^1526/-1594/2/2
!!!OCY: Italia
!!!AGN: Mass (Parody)
!!!AST: renaissance, vocal
!!!ASW: Motet 1563 (Palestrina)
!!!PWK: Masses, Book 4
!!!RNB: Cadence finals: D
!!!YOR: Le Opere Complete, v. 10, p. 1
!!!YOO: Rome, Italy: Fratelli Scalera
!!!END: 1992//
!!!EED: John Miller
!!!YEC: Copyright 2000, John Miller
!!!YEN: United States of America
!!!YEM: Rights to all derivative electronic formats reserved.
!!!YEM: Refer to licensing agreement for further details.
!!!YEM: This file must be accompanied by the licensing agreement.
!!!YEM: A copy of the licensing agreement may be found at http://www.music-cog.ohio-state.edu/HumdrumDatabases/Palestrina/license.txt
!!!EMD: converted to Humdrum by Bret Aarden
